Adwaita++/emotes/symbolic/face-smile-big-squint-symbolic.svg

<svg height="16" width="16" xmlns="http://www.w3.org/2000/svg">
  <path clip-rule="evenodd" d="m8 1c-3.866 0-7 3.134-7 7s3.134 7 7 7 7-3.134 7-7-3.134-7-7-7zm-5 8.03125c2 1.30345 7.9871 1.30345 10.031 0l-.0312.53125c-.0364.42971-1 3.375-4.99998 3.4062-4 .0312-5-2.78-5-3.31251zm.992-4.03125.516-.859 3.21398 1.929-3.21398 1.93-.516-.86 1.78296-1.07zm4.28492 1.071 3.21508-1.93.516.859-1.7841 1.07 1.7841 1.07-.516.86z" fill="#444" fill-rule="evenodd"/>
</svg>

<svg xmlns="http://www.w3.org/2000/svg" width="16" height="16" version="1.1">
 <path fill="#444444" fill-rule="evenodd" d="M8 1C4.134 1 1 4.134 1 8C1 11.866 4.134 15 8 15C11.866 15 15 11.866 15 8C15 4.134 11.866 1 8 1ZM3 9.03125C5 10.3347 10.9871 10.3347 13.031 9.03125L12.9998 9.5625C12.9634 9.99221 11.9998 12.9375 7.99982 12.9687C3.99982 12.9999 2.99982 10.1887 2.99982 9.65619L3 9.03125ZM3.992 5L4.508 4.141L7.72198 6.07L4.508 8L3.992 7.14L5.77496 6.07L3.992 5ZM8.27692 6.071L11.492 4.141L12.008 5L10.2239 6.07L12.008 7.14L11.492 8L8.27692 6.071Z" clip-rule="evenodd"/>
</svg>
